newicons/btc_map.svg

<?xml version="1.0" encoding="UTF-8"?><svg id="a" xmlns="http://www.w3.org/2000/svg" viewBox="0 0 48 48"><defs><style>.b{fill:none;stroke:#fff;stroke-linecap:round;stroke-linejoin:round;}</style></defs><path class="b" d="M24,4.5c-4.2246.0027-8.2756,1.6821-11.2629,4.6694-2.9873,2.9873-4.6667,7.0382-4.6694,11.2629,0,6.2248,3.933,11.9092,7.806,16.0123,2.3473,2.5127,4.9387,4.7857,7.736,6.7852l.3903.2702.3903-.2702c2.7974-1.9995,5.3887-4.2725,7.736-6.7852,3.873-4.1432,7.806-9.8175,7.806-16.0123-.0026-4.2246-1.6821-8.2756-4.6694-11.2629-2.9873-2.9873-7.0381-4.6667-11.2629-4.6694Z"/><path class="b" d="M25.0187,20.2848c.9785.2622,1.5591,1.2679,1.2969,2.2463-.2622.9785-1.2679,1.5591-2.2463,1.2969l-2.9231-.7832,1.8989-7.0866,2.9231.7833c.9785.2622,1.5591,1.2679,1.2969,2.2463-.2622.9785-1.2679,1.5591-2.2463,1.2969Z"/><path class="b" d="M25.0187,20.2848l-2.9231-.7832"/><path class="b" d="M21.1461,23.0449l-.8858-.2374"/><path class="b" d="M23.0449,15.9584l-.8858-.2374"/><path class="b" d="M21.7946,24.168l.2373-.8858"/><path class="b" d="M23.5662,24.6427l.2374-.8858"/><path class="b" d="M23.9307,16.1957l.2374-.8858"/><path class="b" d="M25.7024,16.6705l.2373-.8858"/><path class="b" d="M21.6796,28.6717c4.7827,1.2815,9.6987-1.5568,10.9801-6.3394,1.2815-4.7827-1.5567-9.6987-6.3394-10.9801-4.7827-1.2815-9.6986,1.5567-10.9801,6.3394-1.2815,4.7827,1.5568,9.6986,6.3394,10.9801Z"/></svg>

<svg width="48" height="48" viewBox="0 0 48 48" fill="none" xmlns="http://www.w3.org/2000/svg">
<path d="M24 4.5C19.7786 4.50265 15.7308 6.18078 12.7458 9.16579C9.7608 12.1508 8.08267 16.1986 8.08002 20.42C8.08002 26.64 12.01 32.32 15.88 36.42C18.2255 38.9308 20.8149 41.202 23.61 43.2L24 43.47L24.39 43.2C27.1852 41.202 29.7746 38.9308 32.12 36.42C35.99 32.28 39.92 26.61 39.92 20.42C39.9174 16.1986 38.2392 12.1508 35.2542 9.16579C32.2692 6.18078 28.2215 4.50265 24 4.5Z" stroke="white" stroke-linecap="round" stroke-linejoin="round"/>
<g clip-path="url(#clip0_2411_953)">
<path d="M25.0179 20.2727C25.9956 20.5347 26.5758 21.5396 26.3138 22.5173C26.0518 23.495 25.0469 24.0752 24.0692 23.8132L21.1483 23.0306L23.0457 15.9495L25.9666 16.7322C26.9443 16.9942 27.5245 17.9991 27.2625 18.9768C27.0005 19.9545 25.9956 20.5347 25.0179 20.2727Z" stroke="white" stroke-linecap="round" stroke-linejoin="round"/>
<path d="M25.0179 20.2727L22.097 19.4901" stroke="white" stroke-linecap="round" stroke-linejoin="round"/>
<path d="M21.1483 23.0306L20.2632 22.7934" stroke="white" stroke-linecap="round" stroke-linejoin="round"/>
<path d="M23.0456 15.9496L22.1605 15.7124" stroke="white" stroke-linecap="round" stroke-linejoin="round"/>
<path d="M21.7963 24.1529L22.0334 23.2678" stroke="white" stroke-linecap="round" stroke-linejoin="round"/>
<path d="M23.5665 24.6272L23.8037 23.7421" stroke="white" stroke-linecap="round" stroke-linejoin="round"/>
<path d="M23.9308 16.1867L24.168 15.3016" stroke="white" stroke-linecap="round" stroke-linejoin="round"/>
<path d="M25.7011 16.6611L25.9382 15.776" stroke="white" stroke-linecap="round" stroke-linejoin="round"/>
<path d="M21.6814 28.6531C26.4604 29.9336 31.3726 27.0975 32.6531 22.3186C33.9336 17.5396 31.0976 12.6274 26.3186 11.3469C21.5396 10.0664 16.6275 12.9024 15.3469 17.6814C14.0664 22.4604 16.9025 27.3725 21.6814 28.6531Z" stroke="white" stroke-linecap="round" stroke-linejoin="round"/>
</g>
<defs>
<clipPath id="clip0_2411_953">
<rect width="20" height="20" fill="white" transform="translate(16.929 7.75253) rotate(15)"/>
</clipPath>
</defs>
</svg>
